X:5
T:Angelsea Air
T:Harmony 2
C:Phil Hardy arr. Adam Blaine
L:1/8
R:Slow Air
M:3/4
K:D
Q:"68 bpm"
[| {g}de | {g}f4 {ag}a2 | {ef}e4 {g}de | {g}f4 {gef}ed | {A}B4 {g}AB | {gc}d4 {g}de | {g}f4 {g}dA | {GdG}B4 {ge}f2 | {gef}e3 A{g}de | 
{g}A6 | {g}c2 B2 {G}A2 | {g}B2 A2 B2  | {g}G3 {d}G{g}AG | {g}B4 {G}B2 | {g}c4 {g}BA | {g}B2 G2 B2  | {G}A4 {g}dc ||
{g}d6 | {g}c3 {d}c{g}A2 | G2 A2 BA |  G3 {d}G{g}AG | {g}A6 | {g}c4 {g}Ac | {g}d4 {g}BA | {g}A4 {g}de |
{g}A6 | {G}A6 | {g}B2 A2 B2  | G3 {d}G{g}AG | {g}B4 {g}B/A/B [M: 5/4] [Q:1/4=120] | {g}c4 {g}B<A {G}A2 {ag}a2 |]

